communes/4606.svg

<?xml version="1.0" encoding="UTF-8" standalone="no"?>
<!-- Created with Inkscape (http://www.inkscape.org/) -->

<svg
   xmlns:dc="http://purl.org/dc/elements/1.1/"
   xmlns:cc="http://creativecommons.org/ns#"
   xmlns:rdf="http://www.w3.org/1999/02/22-rdf-syntax-ns#"
   xmlns:svg="http://www.w3.org/2000/svg"
   xmlns="http://www.w3.org/2000/svg"
   xmlns:sodipodi="http://sodipodi.sourceforge.net/DTD/sodipodi-0.dtd"
   xmlns:inkscape="http://www.inkscape.org/namespaces/inkscape"
   version="1.0"
   width="208.86046"
   height="244.65999"
   id="svg2780"
   inkscape:version="0.92.3 (2405546, 2018-03-11)"
   sodipodi:docname="Stettfurt-blazon.svg">
  <metadata
     id="metadata27">
    <rdf:RDF>
      <cc:Work
         rdf:about="">
        <dc:format>image/svg+xml</dc:format>
        <dc:type
           rdf:resource="http://purl.org/dc/dcmitype/StillImage" />
        <dc:title></dc:title>
      </cc:Work>
    </rdf:RDF>
  </metadata>
  <sodipodi:namedview
     pagecolor="#ffffff"
     bordercolor="#666666"
     borderopacity="1"
     objecttolerance="10"
     gridtolerance="10"
     guidetolerance="10"
     inkscape:pageopacity="0"
     inkscape:pageshadow="2"
     inkscape:window-width="1804"
     inkscape:window-height="1251"
     id="namedview25"
     showgrid="false"
     inkscape:zoom="2.35"
     inkscape:cx="-41.593759"
     inkscape:cy="113.45058"
     inkscape:window-x="33"
     inkscape:window-y="16"
     inkscape:window-maximized="0"
     inkscape:current-layer="svg2780"
     inkscape:measure-start="104.255,149.787"
     inkscape:measure-end="104.255,126.383"
     inkscape:object-paths="true" />
  <defs
     id="defs2782" />
  <path
     inkscape:connector-curvature="0"
     style="fill:#cb2918;fill-opacity:0.96470588;fill-rule:evenodd;stroke:none;stroke-width:1.99999988;stroke-linecap:butt;stroke-miterlimit:4;stroke-dashoffset:0;stroke-opacity:1"
     id="path3282"
     d="m 1,1 3.76109,158.00304 c 2.68649,112.85918 196.65176,112.85918 199.33826,0 L 207.86045,1 Z" />
  <g
     id="g5423"
     transform="translate(-0.3008965,0.31914896)">
    <path
       inkscape:connector-curvature="0"
       id="path5375-9"
       d="M 52.922234,41.441231 78.779789,1.0000213 104.63736,41.441231 78.779789,81.724537 Z"
       style="fill:#ffffff;fill-opacity:1;fill-rule:evenodd;stroke:#000000;stroke-width:1px;stroke-linecap:butt;stroke-linejoin:miter;stroke-opacity:1" />
    <path
       inkscape:connector-curvature="0"
       id="path5375"
       d="M 2.2404414,39.850154 27.080685,1.0000184 52.93825,41.441228 27.080685,81.724534 2.2264132,43.004235 Z"
       style="fill:#ffffff;fill-opacity:1;fill-rule:evenodd;stroke:#000000;stroke-width:1px;stroke-linecap:butt;stroke-linejoin:miter;stroke-opacity:1"
       sodipodi:nodetypes="cccccc" />
    <path
       inkscape:connector-curvature="0"
       id="path5375-0"
       d="M 104.62134,41.441231 130.47889,1.0000213 156.33646,41.441231 130.47889,81.724537 Z"
       style="fill:#ffffff;fill-opacity:1;fill-rule:evenodd;stroke:#000000;stroke-width:1px;stroke-linecap:butt;stroke-linejoin:miter;stroke-opacity:1" />
    <path
       inkscape:connector-curvature="0"
       id="path5375-96"
       d="m 156.30298,41.441231 25.85755,-40.4412097 24.80091,38.7885887 -0.0257,3.338827 -24.77521,38.5971 z"
       style="fill:#ffffff;fill-opacity:1;fill-rule:evenodd;stroke:#000000;stroke-width:1px;stroke-linecap:butt;stroke-linejoin:miter;stroke-opacity:1"
       sodipodi:nodetypes="cccccc" />
  </g>
  <g
     id="g5423-0"
     transform="translate(-0.3008965,81.027324)">
    <path
       inkscape:connector-curvature="0"
       id="path5375-9-1"
       d="M 52.922234,41.441231 78.779789,1.0000213 104.63736,41.441231 78.779789,81.724537 Z"
       style="fill:#ffffff;fill-opacity:1;fill-rule:evenodd;stroke:#000000;stroke-width:1px;stroke-linecap:butt;stroke-linejoin:miter;stroke-opacity:1" />
    <path
       inkscape:connector-curvature="0"
       id="path5375-5"
       d="M 4.0985823,36.944022 27.080685,1.0000184 52.93825,41.441228 27.080685,81.724534 4.2749713,46.195669 Z"
       style="fill:#ffffff;fill-opacity:1;fill-rule:evenodd;stroke:#000000;stroke-width:1px;stroke-linecap:butt;stroke-linejoin:miter;stroke-opacity:1"
       sodipodi:nodetypes="cccccc" />
    <path
       inkscape:connector-curvature="0"
       id="path5375-0-3"
       d="M 104.62134,41.441231 130.47889,1.0000213 156.33646,41.441231 130.47889,81.724537 Z"
       style="fill:#ffffff;fill-opacity:1;fill-rule:evenodd;stroke:#000000;stroke-width:1px;stroke-linecap:butt;stroke-linejoin:miter;stroke-opacity:1" />
    <path
       inkscape:connector-curvature="0"
       id="path5375-96-4"
       d="m 156.30298,41.441231 25.85755,-40.4412097 23.15806,36.2191727 -0.0568,8.516042 -23.10128,35.989301 z"
       style="fill:#ffffff;fill-opacity:1;fill-rule:evenodd;stroke:#000000;stroke-width:1px;stroke-linecap:butt;stroke-linejoin:miter;stroke-opacity:1"
       sodipodi:nodetypes="cccccc" />
  </g>
  <g
     id="g5423-0-9"
     transform="translate(-0.3008965,161.72204)">
    <path
       inkscape:connector-curvature="0"
       id="path5375-9-1-1"
       d="M 52.922234,41.441231 78.779789,1.0000213 104.63736,41.441231 80.206264,79.502243 76.885002,78.772662 Z"
       style="fill:#ffffff;fill-opacity:1;fill-rule:evenodd;stroke:#000000;stroke-width:1px;stroke-linecap:butt;stroke-linejoin:miter;stroke-opacity:1"
       sodipodi:nodetypes="cccccc" />
    <path
       inkscape:connector-curvature="0"
       id="path5375-5-2"
       d="M 10.736913,26.561674 27.080685,1.0000184 52.93825,41.441228 39.432269,62.482094 C 30.317314,56.915486 15.802183,42.179589 10.736913,26.561674 Z"
       style="fill:#ffffff;fill-opacity:1;fill-rule:evenodd;stroke:#000000;stroke-width:1px;stroke-linecap:butt;stroke-linejoin:miter;stroke-opacity:1"
       sodipodi:nodetypes="ccccc" />
    <path
       inkscape:connector-curvature="0"
       id="path5375-0-3-2"
       d="m 104.62134,41.441231 25.85755,-40.4412097 25.85757,40.4412097 -24.01945,37.419716 -3.23219,0.691775 z"
       style="fill:#ffffff;fill-opacity:1;fill-rule:evenodd;stroke:#000000;stroke-width:1px;stroke-linecap:butt;stroke-linejoin:miter;stroke-opacity:1"
       sodipodi:nodetypes="cccccc" />
    <path
       inkscape:connector-curvature="0"
       id="path5375-96-4-6"
       d="m 156.30298,41.441231 25.85755,-40.4412097 16.4097,25.6647507 c -5.52859,16.576157 -15.99593,26.398054 -28.6937,35.922597 z"
       style="fill:#ffffff;fill-opacity:1;fill-rule:evenodd;stroke:#000000;stroke-width:1px;stroke-linecap:butt;stroke-linejoin:miter;stroke-opacity:1"
       sodipodi:nodetypes="ccccc" />
  </g>
  <path
     inkscape:connector-curvature="0"
     style="fill:none;fill-opacity:1;fill-rule:evenodd;stroke:#000000;stroke-width:1.99999988;stroke-linecap:butt;stroke-miterlimit:4;stroke-dashoffset:0;stroke-opacity:1"
     id="path4212"
     d="m 1,1 3.761095,158.00304 c 2.686489,112.85918 196.651755,112.85918 199.338255,0 L 207.86045,1 Z" />
</svg>

<?xml version="1.0" encoding="UTF-8"?>
<svg version="1.0" viewBox="0 0 208.86 244.66" xmlns="http://www.w3.org/2000/svg" xmlns:cc="http://creativecommons.org/ns#" xmlns:dc="http://purl.org/dc/elements/1.1/" xmlns:rdf="http://www.w3.org/1999/02/22-rdf-syntax-ns#">
<metadata>
<rdf:RDF>
<cc:Work rdf:about="">
<dc:format>image/svg+xml</dc:format>
<dc:type rdf:resource="http://purl.org/dc/dcmitype/StillImage"/>
<dc:title/>
</cc:Work>
</rdf:RDF>
</metadata>
<path d="m1 1 3.7611 158c2.6865 112.86 196.65 112.86 199.34 0l3.7611-158z" fill="#cb2918" fill-opacity=".96471" fill-rule="evenodd"/>
<g transform="translate(-.3009 .31915)" fill="#fff" fill-rule="evenodd" stroke="#000" stroke-width="1px">
<path d="m52.922 41.441 25.858-40.441 25.858 40.441-25.858 40.283z"/>
<path d="m2.2404 39.85 24.84-38.85 25.858 40.441-25.858 40.283-24.854-38.72z"/>
<path d="m104.62 41.441 25.858-40.441 25.858 40.441-25.858 40.283z"/>
<path d="m156.3 41.441 25.858-40.441 24.801 38.789-0.0257 3.3388-24.775 38.597z"/>
</g>
<g transform="translate(-.3009 81.027)" fill="#fff" fill-rule="evenodd" stroke="#000" stroke-width="1px">
<path d="m52.922 41.441 25.858-40.441 25.858 40.441-25.858 40.283z"/>
<path d="m4.0986 36.944 22.982-35.944 25.858 40.441-25.858 40.283-22.806-35.529z"/>
<path d="m104.62 41.441 25.858-40.441 25.858 40.441-25.858 40.283z"/>
<path d="m156.3 41.441 25.858-40.441 23.158 36.219-0.0568 8.516-23.101 35.989z"/>
</g>
<g transform="translate(-.3009 161.72)" fill="#fff" fill-rule="evenodd" stroke="#000" stroke-width="1px">
<path d="m52.922 41.441 25.858-40.441 25.858 40.441-24.431 38.061-3.3213-0.72958z"/>
<path d="m10.737 26.562 16.344-25.562 25.858 40.441-13.506 21.041c-9.115-5.5666-23.63-20.303-28.695-35.92z"/>
<path d="m104.62 41.441 25.858-40.441 25.858 40.441-24.019 37.42-3.2322 0.69178z"/>
<path d="m156.3 41.441 25.858-40.441 16.41 25.665c-5.5286 16.576-15.996 26.398-28.694 35.923z"/>
</g>
<path d="m1 1 3.7611 158c2.6865 112.86 196.65 112.86 199.34 0l3.7611-158z" fill="none" stroke="#000" stroke-width="2"/>
</svg>
